; generated by Slic3r Prusa Edition 1.41.2+win64 on 2018-12-06 at 20:15:38

; 

; external perimeters extrusion width = 0.35mm
; perimeters extrusion width = 0.40mm
; infill extrusion width = 0.50mm
; solid infill extrusion width = 0.45mm
; top infill extrusion width = 0.40mm
; first layer extrusion width = 0.50mm

M201 X9000 Y9000 Z500 E10000 ; sets maximum accelerations, mm/sec^2
M203 X500 Y500 Z12 E120 ; sets maximum feedrates, mm/sec
M204 P1500 R1500 T1500 ; sets acceleration (P, T) and retract acceleration (R), mm/sec^2
M205 X10.00 Y10.00 Z0.20 E2.50 ; sets the jerk limits, mm/sec
M205 S0 T0 ; sets the minimum extruding and travel feed rate, mm/sec
M107
M190 S75 ; set bed temperature and wait for it to be reached
M104 S245 ; set temperature
; Ender 3 Custom Start G-code
G28 ; Home all axes
G92 E0 ; Reset Extruder
G1 Z2.0 F3000 ; Move Z Axis up little to prevent scratching of Heat Bed
G1 X0.1 Y20 Z0.3 F5000.0 ; Move to start position
G1 X0.1 Y200.0 Z0.3 F1500.0 E15 ; Draw the first line
G1 X0.4 Y200.0 Z0.3 F5000.0 ; Move to side a little
G1 X0.4 Y20 Z0.3 F1500.0 E30 ; Draw the second line
G92 E0 ; Reset Extruder
G1 Z2.0 F3000 ; Move Z Axis up little to prevent scratching of Heat Bed
; End of custom start GCode
M109 S245 ; set temperature and wait for it to be reached
G21 ; set units to millimeters
G90 ; use absolute coordinates
M83 ; use relative distances for extrusion
;BEFORE_LAYER_CHANGE
;Layer 0
;0.2mm
;Printing layer 0 at 0.2mm


G1 E-4.00000 F2400.00000
G1 Z0.600 F10200.000
;AFTER_LAYER_CHANGE
;Layer 0
;0.2mm
;Printing layer 0 at 0.2mm


G1 X79.515 Y75.001
G1 Z0.200
G1 E4.00000 F2400.00000
G1 X79.640 Y74.752 E0.01058
G1 X79.956 Y74.322 E0.02028
G1 X80.628 Y73.798 E0.03242
G1 X81.760 Y73.345 E0.04632
G1 X82.431 Y73.274 E0.02565
G1 X83.029 Y73.362 E0.02299
G1 X84.069 Y73.808 E0.04301
G1 X84.302 Y73.040 E0.03051
G1 X84.676 Y72.417 E0.02762
G1 X85.019 Y72.080 E0.01826
G1 X85.379 Y71.844 E0.01637
G1 X86.686 Y71.281 E0.05408
G1 X87.218 Y71.171 E0.02064
G1 X87.804 Y71.184 E0.02229
G1 X88.487 Y71.349 E0.02672
G1 X88.715 Y70.900 E0.01913
G1 X88.995 Y70.551 E0.01701
G1 X89.481 Y70.154 E0.02383
G1 X91.859 Y69.158 E0.09799
G1 X92.431 Y69.066 E0.02204
G1 X93.026 Y69.083 E0.02261
G1 X95.246 Y69.417 E0.08533
G1 X95.390 Y68.563 E0.03293
G1 X95.615 Y68.103 E0.01944
G1 X96.027 Y67.584 E0.02520
G1 X96.564 Y67.190 E0.02531
G1 X98.450 Y66.416 E0.07749
G1 X99.089 Y66.325 E0.02450
G1 X99.565 Y66.364 E0.01816
G1 X100.006 Y66.479 E0.01732
G1 X101.443 Y67.320 E0.06331
G1 X102.191 Y67.120 E0.02941
G1 X102.921 Y66.815 E0.03009
G1 X103.656 Y66.425 E0.03162
G1 X104.337 Y65.976 E0.03102
G1 X104.997 Y65.431 E0.03251
G1 X106.416 Y63.981 E0.07710
G1 X107.109 Y63.091 E0.04286
G1 X107.679 Y62.617 E0.02820
G1 X111.361 Y61.061 E0.15192
G1 X111.853 Y60.954 E0.01914
G1 X112.403 Y60.950 E0.02092
G1 X112.919 Y61.061 E0.02006
G1 X148.646 Y75.859 E1.46972
G1 X149.060 Y76.125 E0.01868
G1 X149.416 Y76.469 E0.01882
G1 X149.740 Y76.954 E0.02217
G1 X164.541 Y112.686 E1.46992
G1 X164.645 Y113.166 E0.01868
G1 X164.654 Y113.661 E0.01882
G1 X164.541 Y114.233 E0.02218
G1 X149.740 Y149.965 E1.46992
G1 X149.474 Y150.378 E0.01868
G1 X149.130 Y150.735 E0.01882
G1 X148.645 Y151.059 E0.02218
G1 X112.914 Y165.860 E1.46992
G1 X112.433 Y165.964 E0.01868
G1 X111.938 Y165.973 E0.01882
G1 X111.366 Y165.859 E0.02218
G1 X75.635 Y151.059 E1.46991
G1 X75.221 Y150.793 E0.01867
G1 X74.865 Y150.449 E0.01881
G1 X74.540 Y149.964 E0.02219
G1 X59.740 Y114.233 E1.46993
G1 X59.635 Y113.752 E0.01868
G1 X59.627 Y113.257 E0.01882
G1 X59.740 Y112.685 E0.02218
G1 X74.541 Y76.953 E1.46992
G1 X74.807 Y76.540 E0.01868
G1 X75.150 Y76.183 E0.01882
G1 X75.636 Y75.859 E0.02219
G1 X77.888 Y74.932 E0.09257
G1 X78.515 Y74.845 E0.02403
G1 X79.456 Y74.992 E0.03622
G1 X79.731 Y75.650 F10200.000
G1 F2400
G1 X80.025 Y75.000 E0.02712
G1 X80.304 Y74.620 E0.01792
G1 X80.879 Y74.182 E0.02747
G1 X81.895 Y73.783 E0.04149
G1 X82.442 Y73.732 E0.02089
G1 X82.927 Y73.808 E0.01866
G1 X83.623 Y74.114 E0.02890
G1 X84.541 Y74.857 E0.04487
G1 X84.587 Y73.676 E0.04492
G1 X84.710 Y73.249 E0.01690
G1 X85.052 Y72.681 E0.02520
G1 X85.316 Y72.427 E0.01393
G1 X85.609 Y72.240 E0.01320
G1 X86.843 Y71.711 E0.05102
G1 X87.279 Y71.625 E0.01689
G1 X87.763 Y71.640 E0.01843
G1 X88.146 Y71.735 E0.01498
G1 X88.683 Y71.999 E0.02276
G1 X89.088 Y71.165 E0.03526
G1 X89.335 Y70.858 E0.01499
G1 X89.741 Y70.531 E0.01979
G1 X92.006 Y69.591 E0.09321
G1 X92.476 Y69.521 E0.01806
G1 X92.996 Y69.539 E0.01978
G1 X95.632 Y69.938 E0.10130
G1 X95.818 Y68.726 E0.04658
G1 X95.992 Y68.362 E0.01534
G1 X96.328 Y67.930 E0.02081
G1 X96.766 Y67.601 E0.02080
G1 X98.597 Y66.850 E0.07523
G1 X99.076 Y66.783 E0.01840
G1 X99.506 Y66.818 E0.01640
G1 X99.856 Y66.912 E0.01375
G1 X101.375 Y67.812 E0.06712
G1 X102.338 Y67.554 E0.03790
G1 X103.117 Y67.229 E0.03206
G1 X103.890 Y66.819 E0.03326
G1 X104.609 Y66.344 E0.03277
G1 X105.307 Y65.768 E0.03436
G1 X106.760 Y64.282 E0.07901
G1 X107.455 Y63.390 E0.04297
G1 X107.890 Y63.024 E0.02160
G1 X111.518 Y61.491 E0.14970
G1 X111.921 Y61.406 E0.01568
G1 X112.377 Y61.407 E0.01731
G1 X112.763 Y61.491 E0.01502
G1 X148.451 Y76.273 E1.46811
G1 X148.789 Y76.494 E0.01537
G1 X149.079 Y76.778 E0.01540
G1 X149.327 Y77.150 E0.01698
G1 X164.110 Y112.840 E1.46822
G1 X164.193 Y113.236 E0.01537
G1 X164.197 Y113.641 E0.01540
G1 X164.110 Y114.079 E0.01698
G1 X149.326 Y149.770 E1.46822
G1 X149.105 Y150.108 E0.01537
G1 X148.821 Y150.397 E0.01540
G1 X148.450 Y150.645 E0.01698
G1 X112.759 Y165.429 E1.46822
G1 X112.364 Y165.512 E0.01537
G1 X111.958 Y165.516 E0.01540
G1 X111.520 Y165.429 E0.01698
G1 X75.830 Y150.645 E1.46822
G1 X75.492 Y150.424 E0.01536
G1 X75.203 Y150.140 E0.01539
G1 X74.954 Y149.769 E0.01699
G1 X60.170 Y114.078 E1.46823
G1 X60.088 Y113.682 E0.01537
G1 X60.084 Y113.277 E0.01540
G1 X60.171 Y112.839 E0.01698
G1 X74.954 Y77.149 E1.46822
G1 X75.176 Y76.810 E0.01537
G1 X75.459 Y76.521 E0.01540
G1 X75.831 Y76.273 E0.01697
G1 X78.036 Y75.365 E0.09065
G1 X78.480 Y75.302 E0.01704
G1 X79.192 Y75.410 E0.02738
G1 X79.676 Y75.626 E0.02012
G1 X80.062 Y76.600 F10200.000
G1 F2400
G1 X80.262 Y75.582 E0.03942
G1 X80.413 Y75.243 E0.01412
G1 X80.614 Y74.958 E0.01326
G1 X81.081 Y74.593 E0.02252
G1 X81.971 Y74.235 E0.03645
G1 X82.456 Y74.190 E0.01852
G1 X82.770 Y74.239 E0.01209
G1 X83.409 Y74.519 E0.02650
G1 X84.461 Y75.392 E0.05197
G1 X85.037 Y75.979 E0.03125
G1 X84.986 Y75.153 E0.03144
G1 X85.042 Y73.721 E0.05446
G1 X85.119 Y73.454 E0.01058
G1 X85.394 Y72.984 E0.02069
G1 X85.584 Y72.799 E0.01007
G1 X85.839 Y72.635 E0.01153
G1 X86.997 Y72.142 E0.04784
G1 X87.336 Y72.079 E0.01311
G1 X87.682 Y72.090 E0.01315
G1 X87.969 Y72.157 E0.01119
G1 X89.041 Y72.685 E0.04541
G1 X89.171 Y72.042 E0.02491
G1 X89.464 Y71.425 E0.02599
G1 X89.644 Y71.196 E0.01104
G1 X90.002 Y70.907 E0.01749
G1 X92.105 Y70.038 E0.08648
G1 X92.483 Y69.979 E0.01456
G1 X92.967 Y69.995 E0.01841
G1 X95.563 Y70.390 E0.09977
G1 X96.029 Y70.402 E0.01771
G1 X96.248 Y68.886 E0.05823
G1 X96.373 Y68.616 E0.01131
G1 X96.634 Y68.271 E0.01644
G1 X96.969 Y68.012 E0.01610
G1 X98.743 Y67.284 E0.07288
G1 X99.064 Y67.240 E0.01229
G1 X99.446 Y67.271 E0.01460
G1 X99.702 Y67.343 E0.01007
G1 X101.171 Y68.223 E0.06511
G1 X101.361 Y68.258 E0.00732
G1 X101.597 Y68.238 E0.00903
G1 X102.490 Y67.986 E0.03527
G1 X103.313 Y67.643 E0.03385
G1 X104.123 Y67.212 E0.03490
G1 X104.882 Y66.712 E0.03453
G1 X105.616 Y66.105 E0.03621
G1 X107.105 Y64.583 E0.08091
G1 X107.803 Y63.688 E0.04313
G1 X108.101 Y63.431 E0.01499
G1 X111.673 Y61.921 E0.14737
G1 X111.985 Y61.859 E0.01208
G1 X112.347 Y61.864 E0.01376
G1 X112.607 Y61.921 E0.01012
G1 X148.254 Y76.686 E1.46645
G1 X148.515 Y76.861 E0.01192
G1 X148.739 Y77.085 E0.01204
G1 X148.913 Y77.345 E0.01192
G1 X163.679 Y112.993 E1.46647
G1 X163.740 Y113.301 E0.01192
G1 X163.740 Y113.617 E0.01204
G1 X163.679 Y113.925 E0.01192
G1 X148.913 Y149.573 E1.46647
G1 X148.739 Y149.834 E0.01192
G1 X148.515 Y150.058 E0.01204
G1 X148.254 Y150.232 E0.01192
G1 X112.606 Y164.998 E1.46647
G1 X112.299 Y165.059 E0.01192
G1 X111.982 Y165.059 E0.01204
G1 X111.674 Y164.998 E0.01192
G1 X76.027 Y150.232 E1.46647
G1 X75.766 Y150.058 E0.01191
G1 X75.542 Y149.834 E0.01203
G1 X75.368 Y149.573 E0.01193
G1 X60.602 Y113.925 E1.46648
G1 X60.541 Y113.617 E0.01192
G1 X60.541 Y113.301 E0.01204
G1 X60.602 Y112.993 E0.01192
G1 X75.368 Y77.345 E1.46647
G1 X75.542 Y77.085 E0.01192
G1 X75.766 Y76.861 E0.01204
G1 X76.027 Y76.686 E0.01192
G1 X78.140 Y75.811 E0.08693
G1 X78.450 Y75.760 E0.01195
G1 X79.088 Y75.856 E0.02452
G1 X79.383 Y75.997 E0.01245
G1 X80.017 Y76.560 E0.03221
G1 X80.364 Y77.480 F10200.000
G1 F2400
G1 X80.693 Y75.737 E0.06741
G1 X80.801 Y75.485 E0.01040
G1 X80.968 Y75.249 E0.01099
G1 X81.285 Y75.003 E0.01526
G1 X82.048 Y74.687 E0.03141
G1 X82.465 Y74.648 E0.01590
G1 X82.659 Y74.683 E0.00748
G1 X83.191 Y74.922 E0.02218
G1 X84.158 Y75.734 E0.04797
G1 X85.581 Y77.200 E0.07765
G1 X85.444 Y75.158 E0.07777
G1 X85.498 Y73.772 E0.05272
G1 X85.546 Y73.617 E0.00618
G1 X85.741 Y73.284 E0.01467
G1 X85.857 Y73.166 E0.00629
G1 X86.038 Y73.047 E0.00824
G1 X87.153 Y72.572 E0.04606
G1 X87.346 Y72.536 E0.00745
G1 X87.641 Y72.546 E0.01122
G1 X87.831 Y72.594 E0.00744
G1 X88.538 Y72.946 E0.03003
G1 X89.364 Y73.489 E0.03758
G1 X89.598 Y72.206 E0.04956
G1 X89.846 Y71.678 E0.02218
G1 X89.954 Y71.533 E0.00688
G1 X90.263 Y71.284 E0.01506
G1 X92.207 Y70.484 E0.07990
G1 X92.492 Y70.436 E0.01098
G1 X92.938 Y70.452 E0.01697
G1 X95.522 Y70.846 E0.09933
G1 X96.398 Y70.869 E0.03329
G1 X96.556 Y70.025 E0.03266
G1 X96.680 Y69.036 E0.03787
G1 X96.754 Y68.869 E0.00695
G1 X96.980 Y68.571 E0.01421
G1 X97.171 Y68.423 E0.00918
G1 X98.888 Y67.718 E0.07053
G1 X99.049 Y67.698 E0.00619
G1 X99.384 Y67.725 E0.01277
G1 X99.540 Y67.771 E0.00619
G1 X100.863 Y68.583 E0.05899
G1 X101.048 Y68.665 E0.00770
G1 X101.338 Y68.719 E0.01119
G1 X101.680 Y68.690 E0.01305
G1 X102.641 Y68.418 E0.03795
G1 X103.508 Y68.057 E0.03570
G1 X104.357 Y67.606 E0.03654
G1 X105.154 Y67.080 E0.03628
G1 X105.926 Y66.442 E0.03806
G1 X107.450 Y64.885 E0.08281
G1 X108.148 Y63.989 E0.04316
G1 X108.368 Y63.803 E0.01094
G1 X111.828 Y62.351 E0.14263
G1 X112.003 Y62.317 E0.00677
G1 X112.317 Y62.320 E0.01192
G1 X112.449 Y62.350 E0.00517
G1 X148.058 Y77.100 E1.46487
G1 X148.208 Y77.200 E0.00682
G1 X148.400 Y77.392 E0.01033
G1 X148.499 Y77.541 E0.00682
G1 X163.248 Y113.147 E1.46477
G1 X163.283 Y113.323 E0.00682
G1 X163.283 Y113.595 E0.01033
G1 X163.248 Y113.771 E0.00682
G1 X148.499 Y149.377 E1.46477
G1 X148.400 Y149.526 E0.00682
G1 X148.208 Y149.718 E0.01033
G1 X148.058 Y149.818 E0.00682
G1 X112.452 Y164.567 E1.46477
G1 X112.276 Y164.602 E0.00682
G1 X112.004 Y164.602 E0.01033
G1 X111.829 Y164.567 E0.00682
G1 X76.222 Y149.818 E1.46476
G1 X76.073 Y149.719 E0.00681
G1 X75.881 Y149.527 E0.01032
G1 X75.781 Y149.377 E0.00682
G1 X61.033 Y113.771 E1.46477
G1 X60.998 Y113.595 E0.00682
G1 X60.998 Y113.323 E0.01033
G1 X61.033 Y113.147 E0.00682
G1 X75.781 Y77.541 E1.46477
G1 X75.881 Y77.392 E0.00681
G1 X76.073 Y77.200 E0.01033
G1 X76.222 Y77.100 E0.00681
G1 X78.286 Y76.245 E0.08492
G1 X78.480 Y76.216 E0.00743
G1 X78.933 Y76.287 E0.01741
G1 X79.108 Y76.365 E0.00731
G1 X80.319 Y77.440 E0.06154
G1 X80.753 Y78.286 F10200.000
G1 F2400
G1 X80.910 Y77.000 E0.04924
G1 X81.125 Y75.886 E0.04310
G1 X81.190 Y75.726 E0.00659
G1 X81.321 Y75.542 E0.00858
G1 X81.487 Y75.414 E0.00797
G1 X82.186 Y75.124 E0.02877
G1 X82.464 Y75.106 E0.01058
G1 X82.924 Y75.295 E0.01892
G1 X83.838 Y76.061 E0.04531
G1 X86.122 Y78.413 E0.12463
G1 X85.901 Y75.162 E0.12387
G1 X85.945 Y73.866 E0.04929
G1 X86.096 Y73.571 E0.01256
G1 X86.272 Y73.441 E0.00831
G1 X87.308 Y73.003 E0.04275
G1 X87.602 Y73.002 E0.01118
G1 X88.322 Y73.349 E0.03036
G1 X89.749 Y74.293 E0.06505
G1 X89.898 Y73.060 E0.04717
G1 X90.025 Y72.374 E0.02655
G1 X90.250 Y71.891 E0.02023
G1 X90.473 Y71.692 E0.01138
G1 X92.315 Y70.929 E0.07578
G1 X92.505 Y70.894 E0.00731
G1 X92.883 Y70.906 E0.01441
G1 X95.481 Y71.302 E0.09987
G1 X96.428 Y71.327 E0.03600
G1 X96.655 Y71.269 E0.00890
G1 X96.884 Y70.822 E0.01911
G1 X97.009 Y70.087 E0.02832
G1 X97.117 Y69.174 E0.03495
G1 X97.139 Y69.117 E0.00232
G1 X97.326 Y68.871 E0.01175
G1 X97.374 Y68.833 E0.00232
G1 X98.989 Y68.164 E0.06644
G1 X99.317 Y68.178 E0.01247
G1 X99.369 Y68.195 E0.00207
G1 X100.649 Y68.988 E0.05722
G1 X100.912 Y69.104 E0.01093
G1 X101.315 Y69.180 E0.01561
G1 X101.763 Y69.141 E0.01707
G1 X102.792 Y68.850 E0.04064
G1 X103.704 Y68.470 E0.03755
G1 X104.591 Y67.999 E0.03818
G1 X105.426 Y67.448 E0.03804
G1 X106.236 Y66.779 E0.03991
G1 X107.795 Y65.186 E0.08472
G1 X108.491 Y64.292 E0.04308
G1 X108.629 Y64.180 E0.00674
G1 X112.027 Y62.773 E0.13977
G1 X112.298 Y62.782 E0.01031
G1 X122.910 Y67.178 E0.43656
G1 X122.998 Y67.266 E0.00472
G1 X123.123 Y67.266 E0.00477
G1 X147.863 Y77.514 E1.01774
G1 X148.061 Y77.699 E0.01031
G1 X162.817 Y113.301 E1.46474
G1 X162.826 Y113.572 E0.01031
G1 X148.086 Y149.182 E1.46474
G1 X147.900 Y149.379 E0.01031
G1 X112.298 Y164.136 E1.46474
G1 X112.027 Y164.145 E0.01031
G1 X76.418 Y149.404 E1.46474
G1 X76.220 Y149.219 E0.01030
G1 X61.464 Y113.617 E1.46475
G1 X61.455 Y113.346 E0.01031
G1 X76.195 Y77.737 E1.46474
G1 X76.418 Y77.514 E0.01198
G1 X78.428 Y76.681 E0.08268
G1 X78.492 Y76.674 E0.00247
G1 X78.817 Y76.730 E0.01253
G1 X78.875 Y76.758 E0.00247
G1 X79.761 Y77.559 E0.04539
G1 X80.705 Y78.250 E0.04446
G1 E-2.40000
G1 F8160
G1 X80.910 Y77.000 E-0.35407
G1 X81.125 Y75.886 E-0.31684
G1 X81.190 Y75.726 E-0.04842
G1 X81.321 Y75.542 E-0.06305
G1 X81.487 Y75.414 E-0.05856
G1 X82.186 Y75.124 E-0.21151
G1 X82.464 Y75.106 E-0.07776
G1 X82.924 Y75.295 E-0.13909
G1 X83.612 Y75.871 E-0.25069
G1 E-0.08000 F2400.00000
G1 Z0.800 F10200.000
G1 X122.741 Y67.879
G1 Z0.200
G1 E4.00000 F2400.00000
G1 X123.077 Y67.742 E0.01379
G1 X123.991 Y68.120 E0.03760
G1 X124.100 Y68.388 E0.01099
G1 X124.370 Y68.278 E0.01109
G1 X125.284 Y68.656 E0.03760
G1 X125.367 Y68.859 E0.00831
G1 X125.571 Y68.775 E0.00838
G1 X147.625 Y77.910 E0.90724
G1 X147.689 Y77.974 E0.00346
G1 X162.369 Y113.414 E1.45789
G1 X162.369 Y113.505 E0.00346
G1 X147.689 Y148.944 E1.45789
G1 X147.625 Y149.008 E0.00346
G1 X112.186 Y163.688 E1.45789
G1 X112.095 Y163.688 E0.00346
G1 X76.656 Y149.008 E1.45789
G1 X76.591 Y148.944 E0.00345
G1 X61.912 Y113.505 E1.45790
G1 X61.912 Y113.414 E0.00346
G1 X76.591 Y77.974 E1.45789
G1 X76.656 Y77.910 E0.00346
G1 X78.512 Y77.141 E0.07635
G1 X78.642 Y77.164 E0.00503
G1 X79.472 Y77.914 E0.04254
G1 X80.256 Y78.488 E0.03693
G1 X80.668 Y78.718 E0.01794
G1 X81.040 Y78.826 E0.01471
G1 X81.241 Y78.061 E0.03005
G1 X81.360 Y77.079 E0.03761
G1 X81.587 Y75.954 E0.04361
G1 X81.697 Y75.821 E0.00656
G1 X82.317 Y75.565 E0.02549
G1 X82.398 Y75.563 E0.00308
G1 X82.660 Y75.670 E0.01074
G1 X83.535 Y76.403 E0.04341
G1 X85.567 Y78.498 E0.11093
G1 X86.444 Y79.141 E0.04133
G1 X86.556 Y78.054 E0.04153
G1 X86.358 Y75.143 E0.11092
G1 X86.399 Y73.965 E0.04479
G1 X86.454 Y73.868 E0.00423
G1 X86.504 Y73.835 E0.00230
G1 X87.415 Y73.453 E0.03753
G1 X87.513 Y73.457 E0.00372
G1 X88.081 Y73.738 E0.02409
G1 X89.230 Y74.500 E0.05240
G1 X89.998 Y74.826 E0.03170
G1 X90.228 Y74.145 E0.02732
G1 X90.351 Y73.122 E0.03915
G1 X90.468 Y72.489 E0.02449
G1 X90.632 Y72.150 E0.01430
G1 X90.690 Y72.097 E0.00300
G1 X92.515 Y71.352 E0.07491
G1 X92.856 Y71.362 E0.01295
G1 X95.440 Y71.758 E0.09938
G1 X96.479 Y71.786 E0.03951
G1 X96.812 Y71.701 E0.01306
G1 X97.024 Y71.551 E0.00986
G1 X97.323 Y70.967 E0.02491
G1 X97.461 Y70.152 E0.03143
G1 X97.560 Y69.319 E0.03188
G1 X97.635 Y69.220 E0.00472
G1 X99.088 Y68.618 E0.05979
G1 X99.198 Y68.627 E0.00419
